sportPriority/img/corporative/ТЕМА 2 корпоративные скидки.svg

<svg viewBox="0 0 66.72327 52.30131" xmlns="http://www.w3.org/2000/svg"><g transform="translate(.01768 .00003)"><path d="m34.41949 48.2523-9.86349-13.35205c-3.559-4.81762-2.23912-11.26725 2.68567-13.12414l19.73306-7.44043a8.91659 8.91659 0 0 1 9.60246 2.7962l7.4848 8.34967c3.6906 4.11707 3.4892 10.22168-.42995 13.03162l-17.35431 12.44283c-3.57351 2.56223-8.8583 1.35728-11.85824-2.7037z" fill="#584286"/><g fill="#fff"><path d="m35.00067 14.102a5.25977 5.25977 0 1 0 5.25879 5.26074v-.002a5.26575 5.26575 0 0 0 -5.25879-5.25874zm2.75879 5.25879a2.75952 2.75952 0 1 1 -2.76025-2.75879h.00146a2.7629 2.7629 0 0 1 2.75879 2.75883z"/><path d="m45.0793 6.57811-.43408-.14893-1.09722-.15966c-.30176-.0249-1.582-.03271-1.76611-.0332l-13.354.06152a4.83347 4.83347 0 0 0 -3.33838 1.32568l-.07764-.07764-20.66887 20.66944-1.68411-1.33594a2.27807 2.27807 0 0 1 -.13379-.7627 2.32468 2.32468 0 0 1 .68506-1.6543l21.25241-21.25243a2.32726 2.32726 0 0 1 1.65479-.68555h15.02587a2.32016 2.32016 0 0 1 2.15625 1.45947 1.22172 1.22172 0 0 0 1.146.71387 1.27089 1.27089 0 0 0 1.06052-.57174 1.209 1.209 0 0 0 .11084-1.1582 4.855 4.855 0 0 0 -4.47312-2.9678h-15.02635a4.83326 4.83326 0 0 0 -3.43994 1.42529l-21.252 21.25389a4.823 4.823 0 0 0 -1.4248 3.4375l-.00049.11719a2.69916 2.69916 0 0 0 .38281 1.72461 20.11065 20.11065 0 0 0 2.53027 2.28125 5.55848 5.55848 0 0 0 -.48047 1.08691 4.89168 4.89168 0 0 0 -.12158 1.08789 4.8341 4.8341 0 0 0 1.4244 3.43947l15.02685 15.0244a4.8697 4.8697 0 0 0 6.87891.001l21.252-21.252a4.82919 4.82919 0 0 0 1.4248-3.43945v-15.02531a4.87134 4.87134 0 0 0 -3.23883-4.58453zm.71436 4.58447v15.02542a2.32241 2.32241 0 0 1 -.68506 1.65332l-21.25147 21.25388a2.39954 2.39954 0 0 1 -3.31006 0l-15.02588-15.02539a2.33923 2.33923 0 0 1 -.55371-2.42871l1.252-1.58008 20.55323-20.55322a2.3241 2.3241 0 0 1 1.65479-.68506h15.02636a2.34267 2.34267 0 0 1 2.33978 2.3399z"/></g></g></svg>

<svg id="Слой_1" data-name="Слой 1" xmlns="http://www.w3.org/2000/svg" viewBox="0 0 66.72327 52.30131">
  <defs>
    <style>
      .cls-1 {
        fill: #584286;
      }

      .cls-2 {
        fill: #fff;
      }
    </style>
  </defs>
  <title>ТЕМА 2 корпоративные скидки</title>
  <path class="cls-1" d="M34.41949,48.2523,24.556,34.90025C20.997,30.08263,22.31688,23.633,27.24167,21.77611l19.73306-7.44043a8.91659,8.91659,0,0,1,9.60246,2.7962l7.4848,8.34967c3.6906,4.11707,3.4892,10.22168-.42995,13.03162L46.27773,50.956C42.70422,53.51823,37.41943,52.31328,34.41949,48.2523Z" transform="translate(0.01768 0.00003)"/>
  <g>
    <path class="cls-2" d="M35.00067,14.102a5.25977,5.25977,0,1,0,5.25879,5.26074v-.002A5.26575,5.26575,0,0,0,35.00067,14.102Zm2.75879,5.25879A2.75952,2.75952,0,1,1,34.99921,16.602h.00146A2.7629,2.7629,0,0,1,37.75946,19.36083Z" transform="translate(0.01768 0.00003)"/>
    <path class="cls-2" d="M45.0793,6.57811l-.43408-.14893L43.548,6.26952c-.30176-.0249-1.582-.03271-1.76611-.0332l-13.354.06152a4.83347,4.83347,0,0,0-3.33838,1.32568l-.07764-.07764L4.343,28.21532,2.65889,26.87938a2.27807,2.27807,0,0,1-.13379-.7627,2.32468,2.32468,0,0,1,.68506-1.6543L24.46257,3.20995a2.32726,2.32726,0,0,1,1.65479-.68555H41.14323a2.32016,2.32016,0,0,1,2.15625,1.45947,1.22172,1.22172,0,0,0,1.146.71387A1.27089,1.27089,0,0,0,45.506,4.126a1.209,1.209,0,0,0,.11084-1.1582A4.855,4.855,0,0,0,41.14372,0H26.11737a4.83326,4.83326,0,0,0-3.43994,1.42529L1.42543,22.67918a4.823,4.823,0,0,0-1.4248,3.4375l-.00049.11719a2.69916,2.69916,0,0,0,.38281,1.72461,20.11065,20.11065,0,0,0,2.53027,2.28125,5.55848,5.55848,0,0,0-.48047,1.08691,4.89168,4.89168,0,0,0-.12158,1.08789A4.8341,4.8341,0,0,0,3.73557,35.854L18.76242,50.8784a4.8697,4.8697,0,0,0,6.87891.001l21.252-21.252a4.82919,4.82919,0,0,0,1.4248-3.43945V11.16264A4.87134,4.87134,0,0,0,45.0793,6.57811Zm.71436,4.58447V26.188a2.32241,2.32241,0,0,1-.68506,1.65332L23.85713,49.0952a2.39954,2.39954,0,0,1-3.31006,0L5.52119,34.06981a2.33923,2.33923,0,0,1-.55371-2.42871l1.252-1.58008L26.77271,9.5078a2.3241,2.3241,0,0,1,1.65479-.68506H43.45386a2.34267,2.34267,0,0,1,2.33978,2.3399Z" transform="translate(0.01768 0.00003)"/>
  </g>
</svg>
